actions/48/document-revert.svg

<?xml version="1.0" encoding="UTF-8" standalone="no"?>
<svg
   xmlns:dc="http://purl.org/dc/elements/1.1/"
   xmlns:cc="http://creativecommons.org/ns#"
   xmlns:rdf="http://www.w3.org/1999/02/22-rdf-syntax-ns#"
   xmlns:svg="http://www.w3.org/2000/svg"
   xmlns="http://www.w3.org/2000/svg"
   xmlns:xlink="http://www.w3.org/1999/xlink"
   version="1.1"
   width="48"
   height="48"
   id="svg3992">
  <defs
     id="defs3994">
    <linearGradient
       x1="38.940514"
       y1="15.991243"
       x2="20.576487"
       y2="15.991243"
       id="linearGradient3914"
       xlink:href="#linearGradient4087"
       gradientUnits="userSpaceOnUse"
       gradientTransform="matrix(0,-0.89777469,-0.96425314,0,34.682148,44.782073)" />
    <linearGradient
       id="linearGradient4087">
      <stop
         id="stop4089"
         style="stop-color:#ffffff;stop-opacity:1"
         offset="0" />
      <stop
         id="stop4091"
         style="stop-color:#ffffff;stop-opacity:0.23529412"
         offset="0.51153916" />
      <stop
         id="stop4093"
         style="stop-color:#ffffff;stop-opacity:0.15686275"
         offset="0.58522105" />
      <stop
         id="stop4095"
         style="stop-color:#ffffff;stop-opacity:0.39215687"
         offset="1" />
    </linearGradient>
    <linearGradient
       x1="23.731871"
       y1="4.4175272"
       x2="23.731871"
       y2="42.03978"
       id="linearGradient3917"
       xlink:href="#linearGradient3846"
       gradientUnits="userSpaceOnUse"
       gradientTransform="matrix(-0.8227934,0,0,0.76606771,36.149025,3.336958)" />
    <linearGradient
       id="linearGradient3846">
      <stop
         id="stop3848"
         style="stop-color:#fff3cb;stop-opacity:1"
         offset="0" />
      <stop
         id="stop3850"
         style="stop-color:#fdde76;stop-opacity:1"
         offset="0.26238" />
      <stop
         id="stop3852"
         style="stop-color:#f9c440;stop-opacity:1"
         offset="0.66093999" />
      <stop
         id="stop3854"
         style="stop-color:#e48b20;stop-opacity:1"
         offset="1" />
    </linearGradient>
    <linearGradient
       x1="35.998066"
       y1="37.038586"
       x2="35.998066"
       y2="4.0044417"
       id="linearGradient3920"
       xlink:href="#linearGradient3856"
       gradientUnits="userSpaceOnUse"
       gradientTransform="matrix(-0.8227934,0,0,0.76606771,36.149025,3.336958)" />
    <linearGradient
       id="linearGradient3856">
      <stop
         id="stop3858"
         style="stop-color:#b67926;stop-opacity:1"
         offset="0" />
      <stop
         id="stop3860"
         style="stop-color:#eab41a;stop-opacity:1"
         offset="1" />
    </linearGradient>
    <radialGradient
       cx="24.837126"
       cy="36.421127"
       r="15.644737"
       fx="24.837126"
       fy="36.421127"
       id="radialGradient3436"
       xlink:href="#linearGradient8662"
       gradientUnits="userSpaceOnUse"
       gradientTransform="matrix(1,0,0,0.536723,0,16.87306)" />
    <linearGradient
       id="linearGradient8662">
      <stop
         id="stop8664"
         style="stop-color:#000000;stop-opacity:1"
         offset="0" />
      <stop
         id="stop8666"
         style="stop-color:#000000;stop-opacity:0"
         offset="1" />
    </linearGradient>
    <linearGradient
       x1="23.99999"
       y1="5.5641499"
       x2="23.99999"
       y2="43"
       id="linearGradient3988"
       xlink:href="#linearGradient3977"
       gradientUnits="userSpaceOnUse"
       gradientTransform="matrix(0.89189189,0,0,1.1351351,2.5945999,-4.7432314)" />
    <linearGradient
       id="linearGradient3977">
      <stop
         id="stop3979"
         style="stop-color:#ffffff;stop-opacity:1"
         offset="0" />
      <stop
         id="stop3981"
         style="stop-color:#ffffff;stop-opacity:0.23529412"
         offset="0.03626217" />
      <stop
         id="stop3983"
         style="stop-color:#ffffff;stop-opacity:0.15686275"
         offset="0.95056331" />
      <stop
         id="stop3985"
         style="stop-color:#ffffff;stop-opacity:0.39215687"
         offset="1" />
    </linearGradient>
    <linearGradient
       x1="25.132275"
       y1="0.98520643"
       x2="25.132275"
       y2="47.013336"
       id="linearGradient3322"
       xlink:href="#linearGradient3600"
       gradientUnits="userSpaceOnUse"
       gradientTransform="matrix(1,0,0,0.95604943,-9.7404251e-8,-1.9118569)" />
    <linearGradient
       id="linearGradient3600">
      <stop
         id="stop3602"
         style="stop-color:#f4f4f4;stop-opacity:1"
         offset="0" />
      <stop
         id="stop3604"
         style="stop-color:#dbdbdb;stop-opacity:1"
         offset="1" />
    </linearGradient>
    <linearGradient
       x1="-51.786404"
       y1="50.786446"
       x2="-51.786404"
       y2="2.9062471"
       id="linearGradient3324"
       xlink:href="#linearGradient3104"
       gradientUnits="userSpaceOnUse"
       gradientTransform="matrix(0.8074968,0,0,0.89471984,59.410232,-2.9773544)" />
    <linearGradient
       id="linearGradient3104">
      <stop
         id="stop3106"
         style="stop-color:#a0a0a0;stop-opacity:1"
         offset="0" />
      <stop
         id="stop3108"
         style="stop-color:#bebebe;stop-opacity:1"
         offset="1" />
    </linearGradient>
    <radialGradient
       cx="605.71429"
       cy="486.64789"
       r="117.14286"
       fx="605.71429"
       fy="486.64789"
       id="radialGradient3327"
       xlink:href="#linearGradient5060"
       gradientUnits="userSpaceOnUse"
       gradientTransform="matrix(0.02303995,0,0,0.01470022,26.360882,37.040176)" />
    <linearGradient
       id="linearGradient5060">
      <stop
         id="stop5062"
         style="stop-color:#000000;stop-opacity:1"
         offset="0" />
      <stop
         id="stop5064"
         style="stop-color:#000000;stop-opacity:0"
         offset="1" />
    </linearGradient>
    <radialGradient
       cx="605.71429"
       cy="486.64789"
       r="117.14286"
       fx="605.71429"
       fy="486.64789"
       id="radialGradient3330"
       xlink:href="#linearGradient5060"
       gradientUnits="userSpaceOnUse"
       gradientTransform="matrix(-0.02303994,0,0,0.01470022,21.62311,37.040176)" />
    <linearGradient
       id="linearGradient5048">
      <stop
         id="stop5050"
         style="stop-color:#000000;stop-opacity:0"
         offset="0" />
      <stop
         id="stop5056"
         style="stop-color:#000000;stop-opacity:1"
         offset="0.5" />
      <stop
         id="stop5052"
         style="stop-color:#000000;stop-opacity:0"
         offset="1" />
    </linearGradient>
    <linearGradient
       x1="302.85715"
       y1="366.64789"
       x2="302.85715"
       y2="609.50507"
       id="linearGradient3990"
       xlink:href="#linearGradient5048"
       gradientUnits="userSpaceOnUse"
       gradientTransform="matrix(0.06732488,0,0,0.01470022,-0.3411391,37.040146)" />
  </defs>
  <metadata
     id="metadata3997">
    <rdf:RDF>
      <cc:Work
         rdf:about="">
        <dc:format>image/svg+xml</dc:format>
        <dc:type
           rdf:resource="http://purl.org/dc/dcmitype/StillImage" />
        <dc:title />
      </cc:Work>
    </rdf:RDF>
  </metadata>
  <g
     id="layer1">
    <rect
       width="32.508301"
       height="3.5700529"
       x="7.7378473"
       y="42.429947"
       id="rect2879"
       style="opacity:0.3;fill:url(#linearGradient3990);fill-opacity:1;fill-rule:nonzero;stroke:none;stroke-width:1;marker:none;visibility:visible;display:inline;overflow:visible" />
    <path
       d="m 7.7378475,42.430102 c 0,0 0,3.569856 0,3.569856 -1.1865002,0.0067 -2.8683795,-0.799823 -2.8683795,-1.785158 0,-0.985333 1.3240446,-1.784697 2.8683795,-1.784698 z"
       id="path2881"
       style="opacity:0.3;fill:url(#radialGradient3330);fill-opacity:1;fill-rule:nonzero;stroke:none;stroke-width:1;marker:none;visibility:visible;display:inline;overflow:visible" />
    <path
       d="m 40.246148,42.430102 c 0,0 0,3.569856 0,3.569856 1.1865,0.0067 2.86838,-0.799823 2.86838,-1.785158 0,-0.985333 -1.324045,-1.784697 -2.86838,-1.784698 z"
       id="path2883"
       style="opacity:0.3;fill:url(#radialGradient3327);fill-opacity:1;fill-rule:nonzero;stroke:none;stroke-width:1;marker:none;visibility:visible;display:inline;overflow:visible" />
    <path
       d="m 6.4999609,0.49996093 c 8.0202951,0 35.0000391,0.002801 35.0000391,0.002801 l 4.2e-5,43.99727707 c 0,0 -23.333387,0 -35.0000811,0 0,-14.666693 0,-29.333386 0,-44.00007779 z"
       id="path4160"
       style="fill:url(#linearGradient3322);fill-opacity:1;stroke:url(#linearGradient3324);stroke-width:0.99992186;stroke-linecap:butt;stroke-linejoin:round;stroke-miterlimit:4;stroke-opacity:1;stroke-dasharray:none;stroke-dashoffset:0;display:inline" />
    <path
       d="m 40.5,43.5 -33,0 0,-41.9999998 33,0 z"
       id="rect6741-1"
       style="fill:none;stroke:url(#linearGradient3988);stroke-width:1;stroke-linecap:round;stroke-linejoin:round;stroke-miterlimit:4;stroke-opacity:1;stroke-dasharray:none;stroke-dashoffset:0" />
    <path
       d="m 40.481863,36.421127 a 15.644737,8.3968936 0 1 1 -31.2894745,0 15.644737,8.3968936 0 1 1 31.2894745,0 z"
       transform="matrix(0.7670311,0,0,-1.1313708,0.931115,68.7058)"
       id="path3501"
       style="opacity:0.14117647;fill:url(#radialGradient3436);fill-opacity:1;fill-rule:evenodd;stroke:none;stroke-width:1;marker:none;visibility:visible;display:inline;overflow:visible" />
    <path
       d="M 23.55314,32.976108 C 34.00048,25.921353 29.981962,13 16.481961,13.5 l 0,-6.3576393 -13.9999994,10.3576403 13.9999994,9.999998 0,-6 c 9.500002,-1.5 11.391562,6.553543 6.022296,11.476109 z"
       id="path3503"
       style="fill:url(#linearGradient3917);fill-opacity:1;fill-rule:nonzero;stroke:url(#linearGradient3920);stroke-width:0.96392483;stroke-linecap:butt;stroke-linejoin:round;stroke-miterlimit:7;stroke-opacity:1;stroke-dasharray:none;stroke-dashoffset:0;marker:none;visibility:visible;display:block;overflow:visible" />
    <path
       d="m 25.364664,30.303435 c 6.636632,-6.38173 2.515043,-16.952934 -9.818093,-15.696743 L 15.417349,9.2213261 4.166046,17.500001 l 11.251303,8.037175 0,-4.901666 c 13.61301,-1.814943 11.048275,7.924085 9.947315,9.667925 z"
       id="path3505"
       style="opacity:0.8;fill:none;stroke:url(#linearGradient3914);stroke-width:0.96392483;stroke-linecap:butt;stroke-linejoin:miter;stroke-miterlimit:7;stroke-opacity:1;stroke-dasharray:none;stroke-dashoffset:0;marker:none;visibility:visible;display:block;overflow:visible" />
  </g>
</svg>

<svg xmlns="http://www.w3.org/2000/svg" xmlns:xlink="http://www.w3.org/1999/xlink" viewBox="0 0 48 48"><defs><linearGradient x1="38.941" y1="15.991" x2="20.576" y2="15.991" id="s" xlink:href="#a" gradientUnits="userSpaceOnUse" gradientTransform="matrix(0 -.89777 -.96425 0 34.682 44.782)"/><linearGradient id="a"><stop offset="0" stop-color="#fff"/><stop offset=".512" stop-color="#fff" stop-opacity=".235"/><stop offset=".585" stop-color="#fff" stop-opacity=".157"/><stop offset="1" stop-color="#fff" stop-opacity=".392"/></linearGradient><linearGradient x1="23.732" y1="4.418" x2="23.732" y2="42.04" id="q" xlink:href="#b" gradientUnits="userSpaceOnUse" gradientTransform="matrix(-.8228 0 0 .76607 36.15 3.337)"/><linearGradient id="b"><stop offset="0" stop-color="#fff3cb"/><stop offset=".262" stop-color="#fdde76"/><stop offset=".661" stop-color="#f9c440"/><stop offset="1" stop-color="#e48b20"/></linearGradient><linearGradient x1="35.998" y1="37.039" x2="35.998" y2="4.004" id="r" xlink:href="#c" gradientUnits="userSpaceOnUse" gradientTransform="matrix(-.8228 0 0 .76607 36.15 3.337)"/><linearGradient id="c"><stop offset="0" stop-color="#b67926"/><stop offset="1" stop-color="#eab41a"/></linearGradient><radialGradient cx="24.837" cy="36.421" r="15.645" fx="24.837" fy="36.421" id="p" xlink:href="#d" gradientUnits="userSpaceOnUse" gradientTransform="matrix(1 0 0 .53672 0 16.873)"/><linearGradient id="d"><stop offset="0"/><stop offset="1" stop-opacity="0"/></linearGradient><linearGradient x1="24" y1="5.564" x2="24" y2="43" id="o" xlink:href="#e" gradientUnits="userSpaceOnUse" gradientTransform="matrix(.8919 0 0 1.13514 2.595 -4.743)"/><linearGradient id="e"><stop offset="0" stop-color="#fff"/><stop offset=".036" stop-color="#fff" stop-opacity=".235"/><stop offset=".951" stop-color="#fff" stop-opacity=".157"/><stop offset="1" stop-color="#fff" stop-opacity=".392"/></linearGradient><linearGradient x1="25.132" y1=".985" x2="25.132" y2="47.013" id="m" xlink:href="#f" gradientUnits="userSpaceOnUse" gradientTransform="matrix(1 0 0 .95605 0 -1.912)"/><linearGradient id="f"><stop offset="0" stop-color="#f4f4f4"/><stop offset="1" stop-color="#dbdbdb"/></linearGradient><linearGradient x1="-51.786" y1="50.786" x2="-51.786" y2="2.906" id="n" xlink:href="#g" gradientUnits="userSpaceOnUse" gradientTransform="matrix(.8075 0 0 .89472 59.41 -2.977)"/><linearGradient id="g"><stop offset="0" stop-color="#a0a0a0"/><stop offset="1" stop-color="#bebebe"/></linearGradient><radialGradient cx="605.714" cy="486.648" r="117.143" fx="605.714" fy="486.648" id="l" xlink:href="#h" gradientUnits="userSpaceOnUse" gradientTransform="matrix(.02304 0 0 .0147 26.36 37.04)"/><linearGradient id="h"><stop offset="0"/><stop offset="1" stop-opacity="0"/></linearGradient><radialGradient cx="605.714" cy="486.648" r="117.143" fx="605.714" fy="486.648" id="k" xlink:href="#h" gradientUnits="userSpaceOnUse" gradientTransform="matrix(-.02304 0 0 .0147 21.623 37.04)"/><linearGradient id="i"><stop offset="0" stop-opacity="0"/><stop offset=".5"/><stop offset="1" stop-opacity="0"/></linearGradient><linearGradient x1="302.857" y1="366.648" x2="302.857" y2="609.505" id="j" xlink:href="#i" gradientUnits="userSpaceOnUse" gradientTransform="matrix(.06732 0 0 .0147 -.34 37.04)"/></defs><path opacity=".3" fill="url(#j)" overflow="visible" d="M7.738 42.43h32.508V46H7.738z"/><path d="M7.738 42.43V46c-1.187.007-2.87-.8-2.87-1.785 0-.986 1.326-1.785 2.87-1.785z" opacity=".3" fill="url(#k)" overflow="visible"/><path d="M40.246 42.43V46c1.187.007 2.87-.8 2.87-1.785 0-.986-1.326-1.785-2.87-1.785z" opacity=".3" fill="url(#l)" overflow="visible"/><path d="M6.5.5l35 .003V44.5h-35V.5z" fill="url(#m)" stroke="url(#n)" stroke-linejoin="round"/><path d="M40.5 43.5h-33v-42h33z" fill="none" stroke="url(#o)" stroke-linecap="round" stroke-linejoin="round"/><path d="M40.482 36.42a15.645 8.397 0 1 1-31.29 0 15.645 8.397 0 1 1 31.29 0z" transform="matrix(.76703 0 0 -1.13137 .93 68.706)" opacity=".141" fill="url(#p)" fill-rule="evenodd" overflow="visible"/><path d="M23.553 32.976C34 25.92 29.983 13 16.483 13.5V7.142l-14 10.358 14 10v-6c9.5-1.5 11.39 6.554 6.02 11.476z" fill="url(#q)" stroke="url(#r)" stroke-width=".964" stroke-linejoin="round" stroke-miterlimit="7" display="block" overflow="visible"/><path d="M25.365 30.303C32 23.923 27.88 13.35 15.547 14.607l-.13-5.386-11.25 8.28 11.25 8.038v-4.9c13.613-1.816 11.05 7.923 9.948 9.666z" opacity=".8" fill="none" stroke="url(#s)" stroke-width=".964" stroke-miterlimit="7" display="block" overflow="visible"/></svg>
